assets/twitter.svg

<svg viewBox="0 0 96 96" xmlns="http://www.w3.org/2000/svg"><path d="m40.829 68.5c17.638 0 27.284-14.618 27.284-27.295 0-0.4152-0.0084-0.8284-0.0271-1.24 1.8768-1.3586 3.4966-3.0407 4.7834-4.9675-1.7183 0.7641-3.5672 1.2785-5.507 1.5104 1.9799-1.1876 3.4998-3.0664 4.217-5.306-1.8825 1.1171-3.9418 1.9046-6.0893 2.3286-1.7499-1.8647-4.2412-3.0309-6.9998-3.0309-5.2957 0-9.5901 4.2961-9.5901 9.5917 0 0.7528 0.0843 1.4849 0.2488 2.1873-7.97-0.4011-15.037-4.2184-19.767-10.023-0.8519 1.464-1.2999 3.1278-1.2984 4.8216 0 3.3282 1.6929 6.2663 4.2674 7.9852-1.5229-0.0465-3.0123-0.458-4.3431-1.1998-0.0014 0.0403-0.0014 0.0795-0.0014 0.1225 0 4.6458 3.3054 8.5248 7.6933 9.4037-0.8241 0.2245-1.6745 0.338-2.5286 0.3375-0.6169 0-1.218-0.0607-1.8023-0.1729 1.2209 3.8116 4.761 6.5853 8.9582 6.6629-3.2822 2.5734-7.4167 4.1062-11.91 4.1062-0.7644 7e-4 -1.5282-0.0437-2.2874-0.1329 4.244 2.7213 9.2834 4.3091 14.7 4.3091" fill="#0F0D1A"/></svg>

<svg width="96" height="96" viewBox="0 0 96 96" fill="none" xmlns="http://www.w3.org/2000/svg">
<path d="M40.8293 68.5C58.4678 68.5 68.1137 53.8818 68.1137 41.2054C68.1137 40.7902 68.1053 40.377 68.0866 39.9654C69.9634 38.6068 71.5832 36.9247 72.87 34.9979C71.1517 35.762 69.3028 36.2764 67.363 36.5083C69.3429 35.3207 70.8628 33.4419 71.58 31.2023C69.6975 32.3194 67.6382 33.1069 65.4907 33.5309C63.7408 31.6662 61.2495 30.5 58.4909 30.5C53.1952 30.5 48.9008 34.7961 48.9008 40.0917C48.9008 40.8445 48.9851 41.5766 49.1496 42.279C41.1796 41.8779 34.1124 38.0606 29.3826 32.2562C28.5307 33.7202 28.0827 35.384 28.0842 37.0778C28.0842 40.406 29.7771 43.3441 32.3516 45.063C30.8287 45.0165 29.3393 44.605 28.0085 43.8632C28.0071 43.9035 28.0071 43.9427 28.0071 43.9857C28.0071 48.6315 31.3125 52.5105 35.7004 53.3894C34.8763 53.6139 34.0259 53.7274 33.1718 53.7269C32.5549 53.7269 31.9538 53.6662 31.3695 53.554C32.5904 57.3656 36.1305 60.1393 40.3277 60.2169C37.0455 62.7903 32.911 64.3231 28.4174 64.3231C27.653 64.3238 26.8892 64.2794 26.13 64.1902C30.374 66.9115 35.4134 68.4993 40.8297 68.4993" fill="#0F0D1A"/>
</svg>
